svgs/groups/template-o.svg

<svg xmlns="http://www.w3.org/2000/svg" viewBox="0 0 16 16" class="symbol symbol-template-o" aria-labelledby="title" role="img"><title id="title">template-o icon</title><path class="cls-1" d="M14.819 0H1.11A1.145 1.145 0 0 0-.035 1.145v13.71A1.145 1.145 0 0 0 1.11 16h13.71a1.145 1.145 0 0 0 1.145-1.145V1.145A1.145 1.145 0 0 0 14.819 0zm-.857 5.788h-6.29V2h6.29zM1.966 2h3.7v12h-3.7zm5.706 12V7.79h6.29V14z" data-name="Layer 1" role="presentation"/></svg>

<svg xmlns="http://www.w3.org/2000/svg" viewBox="0 0 16 16"><defs><style>.cls-1{fill:#231f20;}</style></defs><title>template-o</title><g id="Layer_1" data-name="Layer 1"><path class="cls-1" d="M14.82,0H1.11A1.15,1.15,0,0,0,0,1.15V14.85A1.15,1.15,0,0,0,1.11,16H14.82A1.15,1.15,0,0,0,16,14.85V1.15A1.15,1.15,0,0,0,14.82,0ZM14,5.79H7.67V2H14ZM2,2h3.7V14H2ZM7.67,14V7.79H14V14Z"/></g></svg>
